X: 168
T:Sky Lark, The
M:4/4
L:1/8
S:Tom McHaile, Posted by John Walsh
R:reel
K:D
agfg efdB|AF~F2 DFAd|BG~G2 EG~G2|FA~A2 FA~A2|!
agfg efdB|AF~F2 DFAd|BGGF G2 ag|(3fga ea fd d2:|!
~a2fd Adfd|efed cA~A2|a2faagec|Acef efge|!
~f3a g2eg|{fg}f2 ef dBAG|(3FGA dA B2 ag|(3fga ea fd d2:|!
de|fedf edcB|A2 FA DAFA|B2GB EBGB|A2 FA DAFA|!
fedf edcB|A2 FA DAFA|BGBd cAce|d2 dc d2:|!
ag|fdfa fdfa|aggf~g3f|edcB Acea|baa^ga3=g|!
fdfa fdfa|aggf ~g3f|edcB Acec|dedc d2:||
